X:69
%%etbk:tnset id:24,pos:1,rep:3x,ant:
%%etbk:wsite http://www.thesession.org/tunes/display/596
%%etbk:pldat 2016-07-25T19:27,2015-02-02T19:22,2014-12-08T18:34,2014-11-22T16:33,2014-03-22T16:37,2014-02-08T14:06,2013-11-27T18:12,2013-11-18T18:10,2013-05-06T17:59
T: Touch Me If You Dare
Z: Piano Box Version by Martin Fleischmann
H: Created 2013-02-19 /  Last Modified 2013-02-19
M: 4/4
L: 1/8
R: reel
K: Gmaj
|: "G"!2!B!1!G!2!G!2!G !3!AG!1!EG | !4!B!1!G !3!(3G!2!G!1!G !2!B!2!d!5!g!3!d | !2!B!1!G!2!G!2!G !3!AG!1!E!2!D | "D"!1!E!3!AAG A2 !2!GA |
"G"!4!B!1!G!2!G!1!G !3!AG!1!EG | !4!B!1!G !3!(3G!2!G!1!G !2!B!2!d!5!g!3!d  | !2!B3!1!G "D"!3!AG!1!E!2!D | "G"!1!E!3!G G!2!F !1!G2 :|
| !2!B!3!c |: "G"!1!dega !5!bgag | !2!e!3!g!1!dg eg!1!d!2!B | !1!dega !5!bgag | "D"!2!e!4!aag !4!a{b}age |
"G"!1!dega !5!bgag | !2!e!3!g!1!dg e{g}e!1!d!3!c | !2!B3!1!G "D"!3!AG!1!E!2!D | "G"!1!E!3!G G!2!F !1!G2 :|


